X:1
T:I will go with my father a-ploughing
T:I will go with my father a-ploughing
T:Ivor Gurney
T:Seosamh Mac Cathmhaoil
C:Ivor Gurney
Z:Seosamh Mac Cathmhaoil
%%score 1 { ( 2 4 ) | ( 3 5 ) }
L:1/8
Q:1/4=70
M:2/4
K:G
V:1 treble nm="Voice"
V:2 treble nm="Piano"
V:4 treble 
V:3 bass 
V:5 bass 
V:1
"^Allegro" z4 | z4 |!mp! (3(E F G B B | d e/ e/ B/ A/) (G/ A/ | B E E3/2 D/ | G3) (E/ F/ | %6
w: ||I will go with my|fa- ther a- plough- ing To the|green field by the|sea, And the|
 G A/ B/!<(! d B/ d/!<)! | e2!mf! B) (B/ A/ |!>(! d/ B3/2 E!>)! A) | A3 (A/ B/ | c B/ A/ B G | %11
w: rooks and the crows and the|sea- gulls Will come|flock- ing af- ter|me; I will|sing to the pa- tient|
 E A) (B c | d B/!<(! A/ (3G A!<)! c |!mf! c2) (3((FG) c |[M:3/4] e2 d B (3(GA) B | %15
w: hor- ses With the|lark in the white of the|air, And * my|fa- ther will sing * the|
 (cB) A3)!<(! (A | e2 d!<)! B!f! (G/A/) B | B2 D2) ((EF) | (3G A B!>(! (Bd- d/c/) (B/A/)!>)! | %19
w: plough- * song, my|fa- ther will sing * the|plough- song That *|bles- ses the cleav- * * * ing *|
[M:2/4][Q:1/4=60]"^T" B4-) | B z z2 | z4 | z4 |!mp![Q:1/4=70]"_T" (3(E F G B B | %24
w: share|_|||I will go with my|
 d e/ e/ B/ A/) (G/ A/ | B E E3/2 D/ | G3) (E/ F/ | G!<(! A/ B/ d B/!<)! d/ | e2 B) (B/ A/ | %29
w: fa- ther a- show- ing To the|red field by the|sea, And the|rooks and the gulls and the|star- lings Will come|
!>(! d G E!>)! A | A3) (A/ B/ | c B/ A/ B G | E A) (3((AB) c |!<(! (3d B A!<)! (3(GA) c | %34
w: flock- ing af- ter|me. I will|sing to the stri- ding|sow- ers With _ the|finch on the green- * ing|
!mf! c2) (3((Ac) e |[M:3/4] e2 d B (3(GA) c | (cB) A3)!<(! (A | e2!<)! d B (3(GA) B | %38
w: sloe, And * my|fa- ther will sing * the|seed- * song, my|fa- ther will sing * the|
 B2 D2) ((EF) | (3G B!>(! d (d2- d/!>)!c/) (B/A/)) |[M:2/4][Q:1/4=60]"^T" B4- | B z z2 | z4 | z4 | %44
w: seed- song That *|on- ly the wise _ _ men *|know.|_|||
!mp![Q:1/4=70]"^T" (3(E F G B B | d e/ e/ B/ A/) (G/ A/ | B E E3/2 D/ | G3) (E/ F/ | %48
w: I will go with my|fa- ther a- reap- ing To the|brown field by the|sea, And the|
 G A/ B/!<(! d B/ d/!<)! | e2 B) (B/ A/ |[M:3/4]!>(! (d>ed) B G!>)! A |[M:2/4][Q:1/4=60]"^T" A4) | %52
w: geese and the crows and the|chil- dren Will come|flock- * * ing af- ter|me.|
 z2[Q:1/4=70]"^T" z (B/ A/ | c d/ c/ _e d | c G) (=F _E |[M:3/4] (3_E =F G _B2 B d | %56
w: I will|sing to the tan- faced|rea- pers With the|wren in the heat of the|
[M:2/4] c2)!mf!"^senza rit." (3((c _B)!<(! _A |[M:3/4] _d2!<)! _e c (_A/_B/) (c) | %58
w: sun And * my|fa- ther will sing * the|
!>(! (_dc)!>)! _B3)!f! B | (_e2 _c _A c3/2 =B/ | =e4 E2- | E3)[Q:1/4=60]"^T" z (F2 | %62
w: scythe * song, My|fa- ther will sing the|scythe song|_ That|
 (3G A B!<(! (B2 d2!<)! | e2 B2) A2) |[M:2/4] d4- | d4- | d z z2 | %67
w: joys for the har- *|* * vest|done.|_||
[Q:1/4=70]"^a tempo"[Q:1/4=70]"^T" z4 | z4 | z4 |] %70
w: |||
V:2
!mp! ([G,B,E]/B,/E/B/) [B,FB]2 | (E/B,/E/B/) [B,FB]2 | ([B,E]/B,/E/B/) [B,FB]2 | %3
 ([B,GB]/E/G/B/) [DFB]2 | ([EB]/E/G/B/ [F,CE]/C/F,/D/) | (ED/E/ G/A/B) | [B,GB]2 ([DFd]/D/F/d/) | %7
 [EBe]2 ([FB]/D/F/d/) |!>(! [DGd]2 (E/C/E/A/)!>)! | ([A,DA]/F/D/E/) (F/G/A) | %10
 [Ec]2 ([B,EB]/B,/E/D/) | ([CE]/C/E/c/) B>c | ([DGd]/D/G/d/) [Dd]2 |!mf! [CGc]2 z2 | %14
[M:3/4] (([G,-A,EG-]2 [G,DG]2) [G,E]2) | ([E,CE]2 [F,DF][G,G][CFA][Ee]) | %16
!<(! [DGe]2 [DG]2!<)!!f! [G,B,E]2 | ([E,CE]2 [F,DF]2 [A,EA]2 | [G,Ec]2!>(! [DGd]2!>)! [F,CF]2) | %19
[M:2/4]!mf! ([B,GB]/B,/G/B/) [B,B]2 | (B/A/G/B/ [DFd]2) | (G/F/E/G/-!>(! G/A/B/A/ | %22
 c/!>)!B/A- [FA]/[EG]/[FA]) |!mp! ([EG]/A/B/e/ [Fd]/)B/F/D/ | ([B,EB]/A/G/E/ [DB]2) | %25
 ([CEB]2 [CFA]/F/C/F/) | ([B,G]/D/G/A/) B/G/([CGc] | [GB]/)G/A!<(! ([DG]/B/[DGd])!<)! | %28
 (B/A/G/B/) ([DFd-]2 |!>(! [DGd]/B/D/G/ B2)!>)! | (F/D/F/G/ A/E/c) | ([CE]/C/E/c/) (F/D/B/d/) | %32
 (c/A/E/e/ F/D/F/c/) |!<(! ([Dd]/G/D/d/) (3([GB]A[C=F])!<)! |!mf! (3EGe [EGe]2 | %35
[M:3/4] ([E,E][F,F] [DGd]2) [G,B,G]2 | ([E,CE]2!<(! [F,F][G,G]!<)! [EFAe]2) | %37
!f! (edBG [G,B,-G][F,B,F] | [E,CE]2 DF) [A,EA]2 | [G,B,G]2!>(! EG!>)! [DFd]2 | %40
[M:2/4]!mf! z/ (B,/E/B/) [B,FB]2 | (E/B,/F/B/) [B,FB]2 |!>(! (B/A/c/e/ d/B/G/A/ | %43
 B/E/)E/G/ A>!>)!B |!mp! [B,EB]2 (D/B,/F/d/) | ([Bd]/D/)([EB]/B,/) ([CE]/F/[EA]/A,/) | %46
 (E/B/)(B/A/ A/F/E/D/) | (([G,B,G]/F/E/B,/ B/G/))[EG-e] | %48
!<(! ([DGd]/E/-[CE-c] [B,EB]/F/!<)![B,G]) | EG/A/ B/c/[Fd] |[M:3/4]!>(! ([DGd]2 [DGB]2 E!>)!A) | %51
[M:2/4] (A>B A=F | C/E/=F/A/ (3(A)BA) | ([CGc]/G/C/c/) ([_EG]/_e/[Gd]/D/) | %54
 ([CG]/c/[Gd]/D/) =F/G/G/c/ |[M:3/4] (cG) (3(G=F_E [_B,G]2) | %56
[M:2/4]!mf!!<(! (Gc)!<)! !tenuto![_E_A_B_e]2 | %57
[M:3/4]!f! ([=FG_d=f]2 [_EG_e]2)!>(! ([_A,C_A]C)!>)! | %58
 [=F,_D=F]2!mf!!<(! ([G,G][_A,_A] [_B,G-_B][_EG_e])!<)! |!f! [_EG_e]2 [_A,E]2 [=B,=E=B]2 | %60
 !tenuto![^G,^G]!tenuto![F,F] [=A,E=A]2 [DEGd]2- | %61
 !tenuto![DEGd]!tenuto![Cc] !tenuto![EAe]2 ([F,F][E,E]) | [D,D]2 ([G,DG][A,A]!<(! [Dd]2 | %63
 [CEGc]2!<)! [FBd]2 [F,F]2) |[M:2/4]!mf! z2 ([FA]/D/A/d/) | [DGd]2 ([CEA]/C/F/d/) | %66
 [DGd]/"^ad lib."!tenuto!E/!tenuto!G/!tenuto![EB]/ !tenuto![Ge]/!tenuto![Fd]/!tenuto![Aa]/!tenuto![Bfb]/ | %67
 z2 [Beb]2- | [Beb]2 !tenuto![B,B]2 | !tenuto![Beb]2 z2 |] %70
V:3
"^with both Pedals"!ped! [E,,B,,E,] z (F,/B,,/F,/A,/) | [E,,B,,G,] z (F,/B,,/F,/A,/) | %2
 [E,,B,,G,]2 (F,/B,,/F,/A,/) | [E,,B,,G,] z (F,/B,,/F,/A,/) | C2 D,,2!ped-up! | %5
 [G,,D,G,]2 (B,,/D,/G,) | G,2 B,2 | C2 [D,B,]2 | [B,,G,]2 [A,,E,]2 | [D,,A,,F,]2 A,[DF] | %10
 A,2 [G,,E,]2 | [A,,E,]2 [D,B,]2 | [B,,G,]2 (3([E,B,]=F,D,) | [E,,C,G,]2 z2 | %14
[M:3/4] [C,,G,,-C,]2 [B,,,G,,B,,]2 [E,,B,,]2 | [A,,,A,,]2 [D,,A,,]2 (A,C) | %16
 B,2 [E,B,]2 [E,,B,,E,]2 | [A,,,A,,]2 [D,,A,,]2 [C,,A,,]2 | [B,,,G,,E,]2 [A,,,E,,C,]2 [D,,D,]2 | %19
[M:2/4] [G,,D,]2 [D,,D,]2 | [G,,D,]2 (B,,,/F,,/B,,/D,/) | E,2 [A,,E,]2 | [A,,,A,,]2 [D,,D,]2 | %23
 [E,,B,,]2 B,2 | [G,,E,]2 (F,/B,,/F,/B,/) | (A,,/C,/E,/G,/ D,2) | ([G,,D,]/D,/B,/A,/ G,E,) | %27
 D,C, B,,B, | C2 (B,/A,/B,-) | [E,B,]2 (C,/E,/G,/E,/) | D,2 A,F, | A,,2 D,2 | A,2 D,2 | %33
 B,,2 (3(E,=F,D,) | (3(C,G,D) C2 |[M:3/4] [C,,C,]2 [B,,,B,,]2 [E,,B,,E,]2 | %36
 [A,,,A,,]2 [D,,D,]2 C2 | [B,,G,B,]2 [E,,B,,G,]2 B,,2 | [A,,,E,,C,]2 [D,B,]2 [C,,A,,]2 | %39
 [E,,B,,E,]2 [A,,E,A,]2 B,C |[M:2/4] z2 (F,/B,,/F,/B,/) | [G,B,]2 (D,/B,,/F,/B,/) | C>A, B,>G, | %43
 F,>E, (C,/A,,/)(E,,/C,/) | [G,,B,,]2 B,,>B,- | B,G, A,E, | G,,([B,,,B,,][C,,C,][D,,D,] | %47
 [E,,E,]>[F,,F,][G,,G,]) [C,G,-] | [B,,G,][A,,E,-] [G,,E,]E, | CA,E,[D,B,] | %50
[M:3/4] [B,,E,]2 [E,B,]2 [A,,E,A,]2 |[M:2/4] [=F,,C,]2- ([F,,C,]/F,,/C,/=F,/) | A,2 C,=F,, | %53
 !tenuto![_E,,C,]!tenuto![_E,G,](G,=F,) | (_E,D, C,)_B,, |[M:3/4] [G,,_E,]2 D,2 [G,,=F,]2 | %56
[M:2/4] [_E,,C,]C !tenuto![_A,C]2 |[M:3/4]!ped! ([_D,,_D,]_B,)!ped-up!C[C,,C,] [=F,,C,=F,]2 | %58
 [_B,,,_B,,]2 [_E,,B,,_E,]2 !tenuto![_D,,G,,E,]!tenuto!D,, | [_C,,G,,_E,]2 [_C,E,]2 [=D,,=D,]2 | %60
 !tenuto!^G,,!tenuto!A,, !tenuto!F,,2 [B,,E,]2 | !tenuto![A,,,A,,]!tenuto!E, !tenuto!C2 ([C,,C,]2 | %62
 [B,,,B,,]2) [E,,B,,E,]2 B,2 | !tenuto!A,!tenuto!E, (([A,,E,C]2 [D,,A,,E,]2)) | %64
[M:2/4] z2 [G,,D,A,]2 | ([D,B,]/G,,/D,/B,/) [D,A,]2 | %66
 [G,,E,]/!tenuto![G,,,G,,]/!tenuto!B,,/!tenuto!G,/ !tenuto!B,/!tenuto!A,/!tenuto!E/!tenuto!D/ | %67
 z2!ped! [G,E]2- | [G,E]2 !tenuto!B,,2 | [G,EG]2!ped-up! z2 |] %70
V:4
 x4 | x4 | x4 | x4 | x4 | B,2 D2 | x4 | x4 | x2 C2 | x4 | x4 | x2 F/D/F/c/ | x2 (3(GA=F) | x4 | %14
[M:3/4] x6 | x6 | x6 | x6 | x6 |[M:2/4] x2 (F/E/D/F/) | [B,G]2 x2 | [G,B,]2 C2 | [CE]2 C2 | x4 | %24
 x4 | x4 | x4 | B,[A,E] x2 | [EG]2 x2 | x2 [CE]2 | A,2 [DF][CE] | x4 | E2 x2 | x4 | E2 x2 | %35
[M:3/4] C2 x4 | x2 D2 x2 | [DG]2 [B,G]2 x2 | x6 | x2 C2 BA |[M:2/4] x4 | x4 | E>F- F>E | %43
 D>C [A,E]>[A,E] | x4 | x4 | B,[B,G] [A,E]F, | x4 | x4 | EC[B,G] x |[M:3/4] x4 C2 | %51
[M:2/4] [A,=F]2- [A,F]2 | C2 [A,=F]2 | x4 | x2 D_E |[M:3/4] [CG]2 _B,2 x2 |[M:2/4] C2 x2 | %57
[M:3/4] x6 | x2 _E2 x2 | x6 | E2 x4 | x4 [A,D]2 | x4 GF | x2 E!ff!D x2 |[M:2/4] x2 C2 | x4 | x4 | %67
 x4 | x4 | x4 |] %70
V:5
 x4 | x4 | x4 | x4 | x4 | x4 | x4 | x4 | x4 | x4 | x4 | x4 | x4 | x4 |[M:3/4] x6 | x6 | x6 | x6 | %18
 x6 |[M:2/4] x4 | x4 | x4 | x4 | x4 | x4 | x4 | x4 | x4 | x4 | x4 | x4 | x4 | x4 | x4 | x4 | %35
[M:3/4] x6 | x6 | x4 (E,,D,,) | x2 [B,,,F,,B,,]2 x2 | x4 D,2 |[M:2/4] x4 | x4 | x4 | x4 | x4 | x4 | %46
 x4 | x4 | x4 | x4 |[M:3/4] x6 |[M:2/4] x4 | x2 =F,2 | x4 | x2 (G,C) | %55
[M:3/4] x2 (3(G,,A,,_B,,) x2 |[M:2/4] x4 |[M:3/4] x6 | x6 | x6 | C,,4 x2 | E, x5 | x6 | x6 | %64
[M:2/4] x4 | x4 | x4 | [E,,,E,,]4- | [E,,,E,,]2 z2 |{/[E,,,E,,]-} [E,,,E,,]2 z2 |] %70

